X:1
T:Title
%%score ( 1 2 ) { 3 | 4 }
L:1/8
Q:1/4=106
M:4/4
K:Ab
V:1 treble nm="Grand Piano, Soprano"
V:2 treble 
V:3 bass nm="Choir Pad, Bass"
V:4 bass 
V:1
 [CE]2 [CE]2- [CE][DF] [CE]2 | [Ec]2 BA [EG][DF] [CE]2 | [CE]2 [DF]2 [DA]2 [CE]2 | [Ec]2 B2 c2 d2 | %4
w: By~William~Howard~Doane * * * *||||
 [DE]2 [CE]2- [CE][DF] [CE]2 | [Ec]2 BA [EG][DF] [FA]2- | [FA][DF] [CE]2 [EA]2 [EG]2 | %7
w: |||
 [DB]2 [CA]6 | [CA]>[DB] [Ec]2- [Ec][DB] [CA]2- | [CA][EA] [FA]2- [FA][EG] [DF]2- | %10
w: |||
 [DF][DF] [CE]2 [CE]>[DF] [CE]2 | [EA]2 [EB]2 [Ec]2 [Ed]2 | [Ec]>[EB] [Ec]>[Ec] [Ec]>[DB] [CA]2 | %13
w: |||
 [EA]2 [FA]>[FA] [FA]>[EG] [DF]2- | [DF][DF] [CE]2 [EA]2 [EG]2 | [EB]2 [EA]6- | [EA]2 z2 z4 |] %17
w: ||||
V:2
 x8 | z2 F2 z4 | x8 | z2 E6 | x8 | z2 F2 z4 | x8 | x8 | x8 | x8 | x8 | x8 | x8 | x8 | x8 | x8 | %16
 x8 |] %17
V:3
 A,2 A,2- A,A, A,2 | A,2 A,2 A,2 A,2 | A,2 A,2 A,2 A,2 | A,2 G,2 A,2 B,2 | G,2 A,2- A,A, A,2 | %5
 A,2 A,2 A,2[K:treble] D2- | DA, A,2 C2[K:bass] B,2 | G,2 A,6 | A,>A, A,>A, A,>A, A,2- | %9
 A,A, A,>D D>A, A,2- | A,A, A,2 A,2 A,2 | A,2 G,2 A,2 B,2 | A,>G, A,>A, A,>A, A,2 | %13
 A,2 A,>D D>A, A,2- | A,A, A,2[K:treble] C2 B,2 | D2 C6- | C2 z2 z4 |] %17
V:4
 A,,2 A,,2- A,,A,, A,,2 | A,,2 D,2 D,2 A,,2 | A,,2 D,2 F,2 z2 | A,,2 E,6 | E,2 A,,2- A,,A,, A,,2 | %5
 A,,2 D,2 D,2 D,2- | D,D, E,2 E,2 E,2 | E,2 A,,6 | A,,>A,, A,,>A,, A,,>A,, A,,2- | %9
 A,,C, D,>D, D,>D, D,2- | D,D, A,,2 A,,2 A,,2 | C,2 E,2 E,2 E,2 | E,>E, A,,>A,, A,,>A,, A,,2 | %13
 C,2 D,>D, D,>D, D,2- | D,D, E,2 E,2 E,2 | E,2 A,,6- | A,,2 z2 z4 |] %17

